X:1
T:Croodin' Doo
M:3/4
L:1/4
K:F
 G| D2 D/2D/2| D2 D/2F/2| A2 A| A2 A| B/2 B/2- B B| B2 d|c/2-A/2 A2-|\
 A2 A|F/2-E/2 E A|F/2-E/2 E A| F2 F| D2 d| A2 G| F G E| D3-| D2||
